src/actions/24/document-import.svg

<svg version="1.1" viewBox="0 0 24 24" xmlns="http://www.w3.org/2000/svg">
 <defs>
  <style id="current-color-scheme" type="text/css">.ColorScheme-Text {
        color:#363636;
      }</style>
 </defs>
 <path class="ColorScheme-Text" d="m18 16h-4.293l2.293-2.293-0.70703-0.70703-3.5 3.5 3.5 3.5 0.70703-0.70703-2.293-2.293h5.293v-1z" fill="currentColor"/>
 <path class="ColorScheme-Text" d="m8 4c-1.662 0-3 1.338-3 3v10c0 1.662 1.338 3 3 3h4v-1h-4c-1.108 0-2-0.892-2-2v-10c0-1.108 0.892-2 2-2h6v2c0 1.108 0.892 2 2 2h2v6h1v-7l-4-4z" fill="currentColor"/>
</svg>

<svg xmlns="http://www.w3.org/2000/svg" viewBox="0 0 24 24">
    <defs>
        <style id="current-color-scheme" type="text/css">
            .ColorScheme-Text{color:#050505;opacity:.7}
        </style>
    </defs>
    <path fill="currentColor" d="M18 16h-4.293L16 13.707 15.293 13l-3.5 3.5 3.5 3.5.707-.707L13.707 17H19v-1z" class="ColorScheme-Text"/>
    <path fill="currentColor" d="M8 4C6.338 4 5 5.338 5 7v10c0 1.662 1.338 3 3 3h4v-1H8c-1.108 0-2-.892-2-2V7c0-1.108.892-2 2-2h6v2c0 1.108.892 2 2 2h2v6h1V8l-4-4z" class="ColorScheme-Text"/>
</svg>
